X:1
T:Där borta
T:Ludvig Norman (1831-1885)
T:Text: Ernst Björck
T:Sommarregnet
T:©PA Aglert Edition may be freely distributed, duplicated, performed and recorded
T:©PA Aglert Edition may be freely distributed, duplicated, performed and recorded
T:©PA Aglert Edition may be freely distributed, duplicated, performed and recorded
T:©PA Aglert Edition may be freely distributed, duplicated, performed and recorded
T:©PA Aglert Edition may be freely distributed, duplicated, performed and recorded
T:©PA Aglert Edition may be freely distributed, duplicated, performed and recorded
T:©PA Aglert Edition may be freely distributed, duplicated, performed and recorded
T:©PA Aglert Edition may be freely distributed, duplicated, performed and recorded
T:©PA Aglert Edition may be freely distributed, duplicated, performed and recorded
T:©PA Aglert Edition may be freely distributed, duplicated, performed and recorded
C:Ludvig Norman (1831-1885)
Z:©PA Aglert
Z:Edition may be freely distributed, duplicated, performed and recorded
%%score [ 1 2 3 4 ]
L:1/8
Q:1/4=156
M:6/8
K:F
V:1 treble nm="S"
V:2 treble nm="A"
V:3 treble-8 nm="T"
V:4 bass nm="B"
V:1
"^Mycket fort"!p! A | A3 d2 f | A2 z z AA | A3 (d2 f) | A3- A2 A | d3 d2 d | cF z z2 F | B3 G3 | %8
w: Ej|su- sar en|fläkt, ej ett|blad sig _|rör, _ och|fåg- lar- na|tyst- na, och|blom- man|
 A3- A z A | (A>Bc) B2 A | A3 B3 |!<(! c3 ^c2 c!<)! | d2!f! d f3- | f3 e2 d |!<(! d3 c2!<)! e | %15
w: dör; _ och|fläm- * * tan- de|hjor- dar|has- ta sitt|lopp till käl-|* lan, som|por- lar i|
 !>!g3- g2 B | A2 z z2!pp! A | A3- A2 A |!<(!!>(! A3!>)! B2 G!<)! | ^F3- F2 F | %20
w: lun- * den|opp, och|jor- * den|smäk- tar i|so- * lens|
 G2 !courtesy!=F _E2 D | D3 ^C2 C | B3 B3 | A6- | A2 z z2!f! A |!<(! (D2 F) (A2 d)!<)! | %26
w: brand, och jor- den|smäk- tar i|jor- dens|brand,|_ men|moln _ sig _|
 !>!f3- fde | f3 (d2 e) | f3- f2 f | e3 d2 d | c3- c2 c | _e3- e2 e | d2 z z2 c | B3 A3 | %34
w: läg- * ra vid|him- lens _|rand, _ nu|hän- ga de|re'n _ kring|fjäl- * lets|bryn, nu|skym- mes|
 A^G z z2!f! =G |"^rit." !>!G3 !>!G3 | e3- !fermata!e2 z ||[K:D]!ff!"^Eldigt" f3 edc | %38
w: so- len, nu|bris- ter|skyn. _|Nu stör- ta de|
 (e2 d) c2 B | A3 d3 | AAB cde | ffe (^dc)B | g3 f2 e | (d3- de)d | c3- c2 z | z6 | z6 | z6 | z6 | %49
w: sval- * kan- de|sku- rar|ned på den viss- na- de|lund, på den brän- * da|hed, på den|brän- * * da|hed. _|||||
 z6 | z2 z z2!f! d | g3- gfd | =f3 f3 | e3- e2 d | c3!p! A3 | =c3 d2 A | =c3 _B3 | %57
w: |Du|glitt- * ran- de|drop- pe|fall, _ o,|fall, den|dö- en- de|blom- man|
!<(! A3- A2 e!<)! | e2 z!f! A3 | f3 (ed)c | (e2 d) (c2 B) | A3 d2 d | A(AB) cde | f(fe) (^dc)B | %64
w: le- * va|skall. Du|få- gel, _ som|förr _ bland _|gre- nar- na|slog, sjung _ å- ter en|sång i _ sva- * lan|
 (g3 f2) e | (d3- dc)e | d2 z!f! !>!A3 | !>!d3 !>!d3 | !>!=f3!p! (e2 d) | e3 e2 =c | A2 z!p! =c3 | %71
w: skog, _ i|sva- * * lan|skog! Blås|jor- den|torr, du _|som- nan- de|fläkt, ty|
 _e3 d2 =c | (d2 =c)!>(! _B2 A!>)! | G3 _B3 | A3!mf! =F3 | =f3!<(! f3 | g3- g=fd!<)! | _B3!>(! d3 | %78
w: him- len har|tva- * git dess|som- mar-|dräkt, av|must och|kär- * na är|å- kern|
 =c3!>)! A3 | d3- d2 =c | (_B=cd) (cB)A | G3 ^G2 G | A2 z z2 z |!f!"^e risoluto" D3 D2 D | %84
w: full: flyg|ut _ att|vag- * * ga _ dess|mog- nan- de|gull!|Till- bed i|
 (=F2 G) A2 A | =F3 A3 | d3- d2!f! A |"^marcato" (D2 =F) A2 d | (!>!=f3- fd)e | =f3 d2 B | %90
w: stof- * tet, du|jor- dens|son! _ Väl-|sig- * nel- sen|kom- * * mer|o- van i-|
 ^G3- G2 z |!f! A3 d2 !courtesy!^f | A3 A2 A | (A3 d2) f | A2 z z2 A | d3 d3 | g3 f3 | f3- fde | %98
w: från. _|Där ski- ner|so- len, I|skug- * gor|flyn, se,|löf- tets|bå- ge|strå- * lar i|
 f3- f z!ff! d | d6 | d6 | a6 | (g3 e3) | d6 | e3- e2 A | f6- | !fermata!f6 |] %107
w: skyn, _ se,|löf-|tets|bå-|ge _|strå-|lar _ i|skyn.|_|
V:2
!p! F | F3 F2 A | F2 z z FF | F3 F3 | F3- F2 F | F3 G2 G | AF z z2 F | F3 E3 | E3- E z E | %9
w: Ej|su- sar en|fläkt, ej ett|blad sig|rör, _ och|fåg- lar- na|tyst- na, och|blom- man|dör; _ och|
 ^F3 F2 F | ^F3 G3 |!<(! A3 A2 A!<)! | B2!f! B B3- | B3 B2 B |!<(! B3 B2!<)! B | B3- B2 G | %16
w: fläm- tan- de|hjor- dar|has- ta sitt|lopp till käl-|* lan, som|por- lar i|lun- * den|
 G2 z z2!pp! G | ^F3- F2 _E |!<(!!>(! _E3!>)! E2 E!<)! | D3- D2 D | _E2 B, B,2 B, | B,3 B,2 ^C | %22
w: opp, och|jor- * den|smäk- tar i|so- * lens|brand, och jor- den|smäk- tar i|
 ^C3 D3 | E6- | E2 z z2!f! A | (D2 F) (A2 d) | !>!A3- AFG | A3 B3 | A3- A2 A | =B3 B2 B | %30
w: jor- dens|brand,|_ men|moln _ sig _|läg- * ra vid|him- lens|rand, _ nu|hän- ga de|
 c3- c2 F | ^F3 G3 | A2 z z2 A | G3 !courtesy!=F3 | FF z z2!f! E | !>!E3 !>!E3 | %36
w: re'n _ kring|fjäl- lets|bryn, nu|skym- mes|so- len, nu|bris- ter|
 G3- !fermata!G2 z ||[K:D]!ff! F3 GGG | A3 F2 F | G3 G3 | GCD EFG | FFA (FA)A | (G2 A) B2 B | %43
w: skyn. _|Nu stör- ta de|sval- kan- de|sku- rar|ned på den viss- na- de|lund, på den brän- * da|hed, _ på den|
 B3 _B3 | A3- A2 z | z6 | z6 | z6 | z2 z z2!f! A |"^marcato" d3- dcA | =c3 c3 | B3- B2 _B | A6 | %53
w: brän- da|hed. _||||Du|glitt- * ran- de|drop- pe|fall, _ o,|fall,|
 G3- G2 ^G | A3!p! A3 | A3 A2 A | A3 G3 |!<(! =F3- F2!<)! ^G | A2 z!f! !courtesy!=G3 | F3 G2 G | %60
w: fall, _ o,|fall, den|dö- en- de|blom- man|le- * va|skall. Du|få- gel, som|
 A3 F3 | G3 G2 G | G(CD) EFG | F(FA) (FA)A | (G2 A) B3 | d3 A3 | A2 z!f! !>!A3 | !>!=F3 !>!G3 | %68
w: förr bland|gre- nar- na|slog, sjung _ å- ter en|sång i _ sva- * lan|skog, _ i|sva- lan|skog! Blås|jor- den|
 !>!A3!p! A3 | A3 A2 ^G | A2 z!p! A3 | =F3 G2 A | _B3!>(! =F2 F!>)! | =F3 E3 | =F3!mf! F3 | %75
w: torr, du|som- nan- de|fläkt, ty|him- len har|tva- git dess|som- mar-|dräkt, av|
 A3 =c3 | (_B2 A) B2 B | _B3 (D2 !courtesy!=E) | =F3 _E3 | D3 _E3 | =F3 F2 F | %81
w: must och|kär- * na är|å- kern _|full: flyg|ut att|vag- ga dess|
 =F3 !courtesy!=E2 E | E2 z z3 |!f!"^e risoluto" D3 D2 D | (D2 E) =F2 F | D3 (D2 E) | %86
w: mog- nan- de|gull!|Till- bed i|stof- * tet, du|jor- dens _|
 =F3- F2!f! A |"^marcato" (D2 =F) A2 A | !>!^G3- G2 G | ^G3 G2 G | =F3- F2 z | %91
w: son! _ Väl-|sig- * nel- sen|kom- * mer|o- van i-|från. _|
!f! !courtesy!^F3 F2 F | F3 F2 F | F3- F2 F | F2 z z2 F | A3 A3 | G3 A3 | B3- BBB | B3- B z!ff! B | %99
w: Där ski- ner|so- len, I|skug- * gor|flyn, se,|löf- tets|bå- ge|strå- * lar i|skyn, _ se,|
 A6 | G6 | F6 | (G3 B3) | (d3 A3) | A3- A2 A | F6- | !fermata!F6 |] %107
w: löf-|tets|bå-|ge _|strå- *|lar _ i|skyn.|_|
V:3
!p! f | f3 f2 d | f2 z z dd | d3 d3 | d3- d2 d | d3 e2 e | fc z z2 c | d3 d3 | ^c3- c z c | %9
w: Ej|su- sar en|fläkt, ej ett|blad sig|rör, _ och|fåg- lar- na|tyst- na, och|blom- man|dör; _ och|
 (!courtesy!=c>d_e) d2 c | c3 B3 |!<(! _e3 e2!<)! e | d2!f! d d3- | d3 B2 d |!<(! g3 c2!<)! c | %15
w: fläm- * * tan- de|hjor- dar|has- ta sitt|lopp till käl-|* lan, som|por- lar i|
 c3 d3 | e2 z z2!pp! e | _e3- e2 ^F |!<(!!>(! ^F3!>)! G2 B!<)! | _A3- A2 A | G2 G G2 !courtesy!=F | %21
w: lun- den|opp, och|jor- * den|smäk- tar i|so- * lens|brand, och jor- den|
 F3 !courtesy!=E2 B | G3 G3 | E6- | E2 z z2!f! A | (D2 F) (A2 d) | f3- fdd | d3 d3 | d3- d2 d | %29
w: smäk- tar i|jor- dens|brand,|_ men|moln _ sig _|läg- * ra vid|him- lens|rand, _ nu|
 d3 e2 f | f3- f2 c | c3 c3 | A2 z z2 d | d3 d3 | dd z z2!f! d | !>!d3 !>!d3 | %36
w: hän- ga de|re'n _ kring|fjäl- lets|bryn, nu|skym- mes|so- len, nu|bris- ter|
 ^c3- !fermata!c2 z ||[K:D]!ff! A3 AAA | A3 A2 d | e3 d3 | eAA AAA | ABc (^de)f | e3 B2 e | %43
w: skyn. _|Nu stör- ta de|sval- kan- de|sku- rar|ned på den viss- na- de|lund, på den brän- * da|hed, på den|
 =f3 f3 | e3- e2 z | z6 | z2 z z2!f! d | g3-"^marcato" gfd | =f3 f3 | e3- e2 _e | d3- d2 d | %51
w: brän- da|hed. _||Du|glitt- * ran- de|drop- pe|fall, _ o,|fall, _ du|
 d3 d2 d | d3 d3 | d3- d2 d | e3!p! c3 | d3 d2 d | d3 d3 |!<(! d3- d2!<)! B | c2 z!f! c3 | %59
w: glitt- ran- de|drop- pe|fall, _ o,|fall, den|dö- en- de|blom- man|le- * va|skall. Du|
 A3 A2 A | A3 d3 | e3 d2 d | e2 A AAA | A(Bc) (^de)f | e3 (!courtesy!=d2 e) | f3 g3 | %66
w: få- gel, som|förr bland|gre- nar- na|slog, sjung å- ter en|sång i _ sva- * lan|skog, i _|sva- lan|
 f2 z!f! !>!A3 | !>!d3 !>!d3 | !>!=c3!p! c3 | =c3 d2 d | =c2 z!p! c3 | A3 _B2 =c | _B3!>(! d2 =c | %73
w: skog! Blås|jor- den|torr, du|som- nan- de|fläkt, ty|him- len har|tva- git dess|
 _B3!>)! G3 | A3!mf! A3 | =c3 _e3 | d3 d2 d | (d2 _B) (=F2 G) | A3 =c3 | _B3 =F3 | =F3 F2 F | %81
w: som- mar-|dräkt, av|must och|kär- na är|å- * kern _|full: flyg|ut att|vag- ga dess|
 d3 d2 d | !courtesy!^c2 z z3 |!f!"^e risoluto" d3 d2 d | d3 d2 d | d3 A3 | A3- A2!f! A | %87
w: mog- nan- de|gull!|Till- bed i|stof- tet, du|jor- dens|son! _ Väl-|
"^marcato" (D2 =F) A2 =f | (!>!d3- d=f)e | d3 d2 d | d3- d2 z |!f! d3 d2 d | d3 d2 d | d3- d2 d | %94
w: sig- * nel- sen|kom- * * mer|o- van i-|från. _|Där ski- ner|so- len, I|skug- * gor|
 d2 z z2 d | f3 f3 | d3 d3 | d3- dfe | d3- d z!ff! d | d6 | (A3 B3) | =c6 | (B3 g3) | f6 | %104
w: flyn, se,|löf- tets|bå- ge|strå- * lar i|skyn, _ se,|löf-|tets _|bå-|ge _|strå-|
 c3- c2 c | A6- | !fermata!A6 |] %107
w: lar _ i|skyn.|_|
V:4
!p! D | D3 D2 A, | D2 z z DD | C3 (B,A,G,) | A,3- A,2 A, | B,3 B,2 B, | A,A, z z2 A, | G,3 B,3 | %8
w: Ej|su- sar en|fläkt, ej ett|blad sig _ _|rör, _ och|fåg- lar- na|tyst- na, och|blom- man|
 A,3- A, z A, | D,3 D,2 D, | D,3 G,3 |!<(! F,3 F,2!<)! F, | B,2!f! A, G,3- | G,3 G,2 F, | %14
w: dör; _ och|fläm- tan- de|hjor- dar|has- ta sitt|lopp till käl-|* lan, som|
!<(! E,3 E,2!<)! G, | E,3 D,3 | ^C,2 z z2!pp! C, | !courtesy!=C,3- C,2 C, | %18
w: por- lar i|lun- den|opp, och|jor- * den|
!<(!!>(! C,3!>)! B,,2 B,,!<)! | B,,3- B,,2 B,, | _E,2 G,, G,,2 G,, | G,,3 G,,2 G, | E,3 D,3 | %23
w: smäk- tar i|so- * lens|brand, och jor- den|smäk- tar i|jor- dens|
 ^C,6- | C,2 z z2!f! A, | (D,2 F,) (A,2 D) | D3- DCB, | A,3 G,3 | F,3- F,2 D, | ^G,3 G,2 G, | %30
w: brand,|_ men|moln _ sig _|läg- * ra vid|him- lens|rand, _ nu|hän- ga de|
 A,3- A,2 A, | A,3 G,3 | ^F,2 z z2 F, | G,3 A,3 | B,B, z z2!f! B, | !>!B,3 !>!B,3 | %36
w: re'n _ kring|fjäl- lets|bryn, nu|skym- mes|so- len, nu|bris- ter|
 A,3- !fermata!A,2 z ||[K:D]!ff! D,3 E,E,E, | F,3 D,2 D, | C,3 B,,3 | C,G,F, E,D,C, | %41
w: skyn. _|Nu stör- ta de|sval- kan- de|sku- rar|ned på den viss- na- de|
 D,B,,B,, B,2 B, | (E,2 F,) G,2 G, | G,3 ^G,3 | A,3- A,2!f! A, | D3-"^marcato" DCA, | =C3 C3 | %47
w: lund, på den brän- da|hed, _ på den|brän- da|hed. _ Du|glitt- * ran- de|drop- pe|
 B,3- B,2 _B, | A,6 | ^G,3 =G,3 | F,3- F,2 F, | G,3 G,2 G, | A,3 D,3 | !courtesy!=B,3- B,2 _B, | %54
w: fall, _ o,|fall,|fall, o,|fall, _ du|glitt- ran- de|drop- pe|fall, _ o,|
 A,3!p! G,3 | F,3 F,2 F, | G,3 G,3 |!<(! A,3- A,2!<)! A, | A,2 z!f! A,3 | D,3 E,2 E, | F,3 D,3 | %61
w: fall, den|dö- en- de|blom- man|le- * va|skall. Du|få- gel, som|förr bland|
 C,3 B,,2 B,, | C,(G,F,) E,D,C, | (D,B,,)B,, B,2 B, | (E,2 F,) G,3 | A,3 A,,3 | D,2 z!f! !>!A,3 | %67
w: gre- nar- na|slog, sjung _ å- ter en|sång _ i sva- lan|skog, _ i|sva- lan|skog! Blås|
 !>!_B,3 !>!B,3 | !>!=F,3!p! F,3 | E,3 E,2 E, | =F,2 z!p! F,3 | =F,3 F,2 F, | %72
w: jor- den|torr, du|som- nan- de|fläkt, ty|him- len har|
 _B,,3!>(! B,,2 =C,!>)! | D,3 =C,3 | =F,3!mf! F,3 | =F,3 F,3 | =F,3 F,2 F, | =F,3 F,3 | %78
w: tva- git dess|som- mar-|dräkt, av|must och|kär- na är|å- kern|
 =F,3 =F,,3 | _B,,3 =C,3 | D,3 D,2 D, | _B,3 B,2 B, | A,2 z z2 z |!f!"^e risoluto" D3 =C2 _B, | %84
w: full: flyg|ut att|vag- ga dess|mog- nan- de|gull!|Till- bed i|
 (A,2 G,) =F,2 D, | _B,3 (A,2 G,) | (=F,3 D,2)!f! A, |"^marcato" (D,2 =F,) A,2 D | %88
w: stof- * tet, du|jor- dens _|son! _ Väl-|sig- * nel- sen|
 (!courtesy!=B,3- B,D)=C | B,3 B,2 B, | B,3- B,2 z |!f! A,3 A,2 ^G, | A,3 A,2 A, | A,3- A,2 B, | %94
w: kom- * * mer|o- van i-|från. _|Där ski- ner|so- len, I|skug- * gor|
 =C2 z z2 C | =C3 C3 | B,3 A,3 | ^G,3- G,G,G, | ^G,3- G, z!ff! =G, | F,6 | E,6 | D,6 | G,6 | A,6 | %104
w: flyn, se,|löf- tets|bå- ge|strå- * lar i|skyn, _ se,|löf-|tets|bå-|ge|strå-|
 A,,3- A,,2 A,, | D,6- | !fermata!D,6 |] %107
w: lar _ i|skyn.|_|

